X:1
T:Title
%%score { 1 | 2 }
L:1/8
Q:1/4=100
M:4/4
K:Eb
V:1 treble nm="Grand Piano"
V:2 bass 
V:1
 G2 G2 F2 E2 | B2 c2 B4 | E2 [EF]2 [EG]2 [DF]2 | E6 z2 | G2 G2 F2 E2 | B2 c2 B4 | %6
w: F.~S.~Shepard * * *||||||
 E2 [=A,EF]2 [B,EG]2 [_A,DF]2 | [G,E]6 z2 | [DF]2 [EG]2 [FA]2 [DF]2 | [EG]2 [FA]2 [GB]4 | %10
w: ||||
 c2 d2 e2 c2 | [EGB]2 [B,EG]2 [B,DF]4 | [B,EG]2 [B,EA]2 [B,EB]2 [G,E]2 | [A,EA]2 [EB]2 [Ec]4 | %14
w: ||||
 [G,E]2 [A,EF]2 [B,EG]2 [A,DF]2 | [G,E]6 z2 |] %16
w: ||
V:2
 [E,B,E]2 [E,B,E]2 [F,B,D]2 [G,B,]2 | [E,G,E]2 [E,A,E]2 [E,G,E]4 | %2
 [C,G,]2 [C,=A,]2 [B,,B,]2 [B,,_A,]2 | [E,G,]6 z2 | [E,B,E]2 [E,B,E]2 [F,B,D]2 [G,B,]2 | %5
 [E,G,E]2 [E,A,E]2 [E,G,E]4 | [C,G,]2 C,2 B,,2 B,,2 | E,6 z2 | %8
 [B,,B,]2 [B,,B,]2 [B,,B,]2 [B,,B,]2 | [E,B,]2 [E,B,]2 [E,E]4 | [A,EA]2 [A,DA]2 [A,CA]2 [A,EA]2 | %11
 E,2 E,2 B,,4 | E,2 F,2 G,2 E,_D, | C,2 [B,,G,]2 [A,,A,]4 | B,,2 B,,2 B,,2 B,,2 | E,6 z2 |] %16

